Hatter-kde/actions/22/kdenlive-split-audio.svg

<?xml version="1.0" encoding="UTF-8"?>
<svg viewBox="0 0 22 22" xmlns="http://www.w3.org/2000/svg">
 <defs id="defs3051">
  <style id="current-color-scheme" type="text/css">.ColorScheme-Text {
        color:#363636;
      }</style>
 </defs>
 <path class="ColorScheme-Text" d="m3 2v4 1 4h1 2 10 2 1v-4-1-4h-1-2-10-2-1zm1 1h1v1h-1v-1zm2 0h10v3 1 3h-10v-3-1-3zm11 0h1v1h-1v-1zm-13 3h1v1h-1v-1zm13 0h1v1h-1v-1zm-13 3h1v1h-1v-1zm13 0h1v1h-1v-1zm-12 3v2h-1v1h-1v1h1v1h1v2h1v-1h1v-1h1v-1h1v1h1v2h1v-1h1v-2h1v1h1v1h1v1h1v-1h1v-1h1v-1h1v-1h-1v-1h-1v-1h-1v-1h-1v1h-1v1h-1v1h-1v-2h-1v-1h-1v2h-1v1h-1v-1h-1v-1h-1v-1h-1z" fill="currentColor"/>
</svg>

<svg xmlns="http://www.w3.org/2000/svg" viewBox="0 0 22 22">
  <defs id="defs3051">
    <style type="text/css" id="current-color-scheme">
      .ColorScheme-Text {
        color:#363636;
      }
      </style>
  </defs>
 <path 
     style="fill:currentColor;fill-opacity:1;stroke:none" 
     d="M 3 2 L 3 6 L 3 7 L 3 11 L 4 11 L 6 11 L 16 11 L 18 11 L 19 11 L 19 7 L 19 6 L 19 2 L 18 2 L 16 2 L 6 2 L 4 2 L 3 2 z M 4 3 L 5 3 L 5 4 L 4 4 L 4 3 z M 6 3 L 16 3 L 16 6 L 16 7 L 16 10 L 6 10 L 6 7 L 6 6 L 6 3 z M 17 3 L 18 3 L 18 4 L 17 4 L 17 3 z M 4 6 L 5 6 L 5 7 L 4 7 L 4 6 z M 17 6 L 18 6 L 18 7 L 17 7 L 17 6 z M 4 9 L 5 9 L 5 10 L 4 10 L 4 9 z M 17 9 L 18 9 L 18 10 L 17 10 L 17 9 z M 5 12 L 5 14 L 4 14 L 4 15 L 3 15 L 3 16 L 4 16 L 4 17 L 5 17 L 5 19 L 6 19 L 6 18 L 7 18 L 7 17 L 8 17 L 8 16 L 9 16 L 9 17 L 10 17 L 10 19 L 11 19 L 11 18 L 12 18 L 12 16 L 13 16 L 13 17 L 14 17 L 14 18 L 15 18 L 15 19 L 16 19 L 16 18 L 17 18 L 17 17 L 18 17 L 18 16 L 19 16 L 19 15 L 18 15 L 18 14 L 17 14 L 17 13 L 16 13 L 16 12 L 15 12 L 15 13 L 14 13 L 14 14 L 13 14 L 13 15 L 12 15 L 12 13 L 11 13 L 11 12 L 10 12 L 10 14 L 9 14 L 9 15 L 8 15 L 8 14 L 7 14 L 7 13 L 6 13 L 6 12 L 5 12 z "
     class="ColorScheme-Text"
     />
</svg>
